!!!OTL: MAEDCHEN WENN ICH DICH ERBLICKE
!!!ARE: Europa, Mitteleuropa, Deutschland, Hessen; Westerwald
!!!SCT: E0566A
!!!YEM: Copyright 1995, estate of Helmut Schaffrath.
**kern
*ICvox
*Ivox
*M4/4
*k[b-]
*F:
=1
{4f
4a
4cc
8dd
8cc
=2
4b-
4g
4f
4c}
=3
{8f
8f
8a
8a
4cc
8b-
8a
=4
2g
2r}
=5
{4f
8b-
8dd
4ff
8ee
8dd
=6
4cc
8ff
8cc
4a
4f}
=7
{8g
8f
8e
8g
4dd
8cc
8b-
=8
2a
2r}
==
!!!AGN: Liebes - Lied
!!!ONB: ESAC (Essen Associative Code) Database: ERK1
!!!AMT: simple quadruple
!!!AIN: vox
!!!EED: Helmut Schaffrath
!!!EEV: 1.0
*-
